public/assets/img/home1/icon/google-logo.svg

<svg width="37" height="37" viewBox="0 0 37 37" fill="none" xmlns="http://www.w3.org/2000/svg">
<g clip-path="url(#clip0_1531_33910)">
<path d="M8.19998 22.3596L6.91206 27.1676L2.20475 27.2672C0.797957 24.6579 0 21.6725 0 18.5C0 15.4323 0.74607 12.5394 2.06853 9.99207H2.06954L6.26037 10.7604L8.09621 14.9261C7.71197 16.0463 7.50254 17.2488 7.50254 18.5C7.50269 19.8581 7.74868 21.1592 8.19998 22.3596Z" fill="#FBBB00"/>
<path d="M36.6773 15.0439C36.8897 16.1631 37.0005 17.3188 37.0005 18.5C37.0005 19.8245 36.8613 21.1164 36.596 22.3626C35.6954 26.6034 33.3422 30.3064 30.0824 32.9269L30.0814 32.9259L24.8028 32.6566L24.0557 27.9929C26.2188 26.7244 27.9092 24.7392 28.7997 22.3626H18.9072V15.0439H36.6773Z" fill="#518EF8"/>
<path d="M30.0801 32.9259L30.0811 32.927C26.9108 35.4753 22.8834 37 18.4993 37C11.4541 37 5.32879 33.0622 2.2041 27.2672L8.19933 22.3596C9.76164 26.5292 13.7839 29.4974 18.4993 29.4974C20.5262 29.4974 22.425 28.9495 24.0544 27.9929L30.0801 32.9259Z" fill="#28B446"/>
<path d="M30.3093 4.25905L24.3161 9.16559C22.6298 8.11153 20.6364 7.50262 18.5008 7.50262C13.6786 7.50262 9.58113 10.6069 8.09708 14.926L2.07035 9.99202H2.06934C5.14829 4.05576 11.3508 0 18.5008 0C22.9896 0 27.1053 1.59895 30.3093 4.25905Z" fill="#F14336"/>
</g>
<defs>
<clipPath id="clip0_1531_33910">
<rect width="37" height="37" fill="white"/>
</clipPath>
</defs>
</svg>

<svg xmlns="http://www.w3.org/2000/svg" width="37" height="37" fill="none" viewBox="0 0 37 37">
    <g clip-path="url(#a)">
        <path fill="#fbbb00" d="m8.2 22.36-1.288 4.808-4.707.1A18.4 18.4 0 0 1 0 18.5c0-3.068.746-5.96 2.069-8.508l4.191.768 1.836 4.166a11 11 0 0 0-.593 3.574c0 1.358.246 2.66.697 3.86"/>
        <path fill="#518ef8" d="M36.677 15.044c.213 1.12.324 2.275.324 3.456 0 1.325-.14 2.616-.405 3.863a18.5 18.5 0 0 1-6.514 10.564v-.001l-5.28-.27-.746-4.663a11.03 11.03 0 0 0 4.744-5.63h-9.893v-7.32z"/>
        <path fill="#28b446" d="m30.08 32.926.001.001A18.42 18.42 0 0 1 18.5 37c-7.045 0-13.17-3.938-16.295-9.733L8.2 22.36c1.563 4.17 5.585 7.137 10.3 7.137 2.027 0 3.926-.547 5.555-1.504z"/>
        <path fill="#f14336" d="m30.31 4.26-5.994 4.906a10.94 10.94 0 0 0-5.815-1.663c-4.822 0-8.92 3.104-10.404 7.423L2.07 9.992C5.147 4.056 11.35 0 18.5 0c4.49 0 8.605 1.599 11.81 4.26"/>
    </g>
    <defs>
        <clipPath id="a">
            <path fill="#fff" d="M0 0h37v37H0z"/>
        </clipPath>
    </defs>
</svg>
